static/img/in-field/inputs-info-dark.svg

<svg width="468" height="95" viewBox="0 0 468 95" fill="none" xmlns="http://www.w3.org/2000/svg">
<rect x="1" y="1.6665" width="466" height="54" rx="3" fill="black"/>
<path d="M22.9717 37.6665H21.1348V23.5728H16.1934V21.9614H27.8916V23.5728H22.9717V37.6665ZM34.7803 25.6782C35.7829 25.6782 36.6423 25.9002 37.3584 26.3442C38.0745 26.7882 38.6224 27.4113 39.002 28.2134C39.3815 29.0083 39.5713 29.9393 39.5713 31.0063V32.1128H31.4395C31.4609 33.495 31.8047 34.5477 32.4707 35.271C33.1367 35.9943 34.0749 36.356 35.2852 36.356C36.0299 36.356 36.6888 36.2879 37.2617 36.1519C37.8346 36.0158 38.429 35.8153 39.0449 35.5503V37.1187C38.4505 37.3836 37.8597 37.577 37.2725 37.6987C36.6924 37.8205 36.0049 37.8813 35.21 37.8813C34.0785 37.8813 33.0902 37.6522 32.2451 37.1938C31.4072 36.7284 30.7555 36.048 30.29 35.1528C29.8245 34.2576 29.5918 33.1619 29.5918 31.8657C29.5918 30.5981 29.8031 29.5024 30.2256 28.5786C30.6553 27.6476 31.2568 26.9315 32.0303 26.4302C32.8109 25.9289 33.7275 25.6782 34.7803 25.6782ZM34.7588 27.1392C33.8063 27.1392 33.0472 27.4507 32.4814 28.0737C31.9157 28.6968 31.5791 29.5669 31.4717 30.6841H37.7021C37.695 29.9823 37.584 29.3664 37.3691 28.8364C37.1615 28.2993 36.8428 27.884 36.4131 27.5903C35.9834 27.2896 35.432 27.1392 34.7588 27.1392ZM45.6543 31.6401L41.583 25.8931H43.624L46.7285 30.4263L49.8223 25.8931H51.8418L47.7705 31.6401L52.0674 37.6665H50.0264L46.7285 32.8647L43.4092 37.6665H41.3896L45.6543 31.6401ZM58.4189 36.4204C58.7126 36.4204 59.0133 36.3953 59.3213 36.3452C59.6292 36.2951 59.8799 36.2342 60.0732 36.1626V37.5483C59.8656 37.6414 59.5755 37.7202 59.2031 37.7847C58.8379 37.8491 58.4798 37.8813 58.1289 37.8813C57.5059 37.8813 56.9401 37.7739 56.4316 37.5591C55.9232 37.3371 55.515 36.9647 55.207 36.4419C54.9062 35.9191 54.7559 35.1958 54.7559 34.272V27.2896H53.0801V26.4194L54.7666 25.7212L55.4756 23.1646H56.5498V25.8931H59.998V27.2896H56.5498V34.2183C56.5498 34.9559 56.7181 35.5073 57.0547 35.8726C57.3984 36.2378 57.8532 36.4204 58.4189 36.4204ZM68.9414 37.6665V21.9614H70.7676V37.6665H68.9414ZM80.6426 25.6782C82.0391 25.6782 83.0954 26.022 83.8115 26.7095C84.5277 27.3898 84.8857 28.4855 84.8857 29.9966V37.6665H83.124V30.1147C83.124 29.1336 82.8984 28.3996 82.4473 27.9126C82.0033 27.4256 81.3193 27.1821 80.3955 27.1821C79.0921 27.1821 78.1755 27.5509 77.6455 28.2886C77.1156 29.0262 76.8506 30.0968 76.8506 31.5005V37.6665H75.0674V25.8931H76.5068L76.7754 27.5903H76.8721C77.1227 27.175 77.4414 26.8276 77.8281 26.5483C78.2148 26.2619 78.6481 26.047 79.1279 25.9038C79.6077 25.7534 80.1126 25.6782 80.6426 25.6782ZM94.3418 25.6782C95.8099 25.6782 96.9808 26.1831 97.8545 27.1929C98.7282 28.2026 99.165 29.7209 99.165 31.7476C99.165 33.0868 98.9645 34.2111 98.5635 35.1206C98.1624 36.0301 97.5967 36.7176 96.8662 37.1831C96.1429 37.6486 95.2871 37.8813 94.2988 37.8813C93.6758 37.8813 93.1279 37.799 92.6553 37.6343C92.1826 37.4696 91.778 37.2476 91.4414 36.9683C91.1048 36.689 90.8255 36.3846 90.6035 36.0552H90.4746C90.4961 36.3345 90.5212 36.6711 90.5498 37.0649C90.5856 37.4588 90.6035 37.8026 90.6035 38.0962V42.9302H88.8096V25.8931H90.2812L90.5176 27.6333H90.6035C90.8327 27.2752 91.112 26.9494 91.4414 26.6558C91.7708 26.355 92.1719 26.1187 92.6445 25.9468C93.1243 25.7677 93.6901 25.6782 94.3418 25.6782ZM94.0303 27.1821C93.2139 27.1821 92.555 27.3397 92.0537 27.6548C91.5596 27.9699 91.1979 28.4425 90.9688 29.0728C90.7396 29.6958 90.6178 30.48 90.6035 31.4253V31.769C90.6035 32.7645 90.7109 33.606 90.9258 34.2935C91.1478 34.981 91.5094 35.5037 92.0107 35.8618C92.5192 36.2199 93.1995 36.3989 94.0518 36.3989C94.7822 36.3989 95.391 36.202 95.8779 35.8081C96.3649 35.4142 96.7266 34.8664 96.9629 34.1646C97.2064 33.4556 97.3281 32.6427 97.3281 31.7261C97.3281 30.3368 97.056 29.2339 96.5117 28.4175C95.9746 27.5939 95.1475 27.1821 94.0303 27.1821ZM112.252 25.8931V37.6665H110.791L110.533 36.0122H110.437C110.193 36.4204 109.878 36.7642 109.491 37.0435C109.104 37.3228 108.668 37.5304 108.181 37.6665C107.701 37.8097 107.189 37.8813 106.645 37.8813C105.714 37.8813 104.933 37.731 104.303 37.4302C103.673 37.1294 103.196 36.6639 102.874 36.0337C102.559 35.4035 102.401 34.5942 102.401 33.606V25.8931H104.206V33.4771C104.206 34.4582 104.428 35.1922 104.872 35.6792C105.316 36.159 105.993 36.3989 106.902 36.3989C107.776 36.3989 108.471 36.2342 108.986 35.9048C109.509 35.5754 109.885 35.092 110.114 34.4546C110.343 33.8101 110.458 33.0223 110.458 32.0913V25.8931H112.252ZM120.075 36.4204C120.369 36.4204 120.67 36.3953 120.978 36.3452C121.285 36.2951 121.536 36.2342 121.729 36.1626V37.5483C121.522 37.6414 121.232 37.7202 120.859 37.7847C120.494 37.8491 120.136 37.8813 119.785 37.8813C119.162 37.8813 118.596 37.7739 118.088 37.5591C117.579 37.3371 117.171 36.9647 116.863 36.4419C116.562 35.9191 116.412 35.1958 116.412 34.272V27.2896H114.736V26.4194L116.423 25.7212L117.132 23.1646H118.206V25.8931H121.654V27.2896H118.206V34.2183C118.206 34.9559 118.374 35.5073 118.711 35.8726C119.055 36.2378 119.509 36.4204 120.075 36.4204Z" fill="white"/>
<rect x="1" y="1.6665" width="466" height="54" rx="3" stroke="#353A40" stroke-width="2"/>
<path d="M5.1377 80.1665C5.1377 81.7325 5.43159 83.2831 6.00261 84.73C6.57363 86.1768 7.41059 87.4914 8.46569 88.5987C9.5208 89.706 10.7734 90.5844 12.152 91.1837C13.5305 91.783 15.0081 92.0915 16.5002 92.0915C17.9923 92.0915 19.4699 91.783 20.8484 91.1837C22.227 90.5844 23.4796 89.706 24.5347 88.5987C25.5898 87.4914 26.4268 86.1768 26.9978 84.73C27.5688 83.2831 27.8627 81.7325 27.8627 80.1665C27.8627 78.6004 27.5688 77.0498 26.9978 75.603C26.4268 74.1561 25.5898 72.8415 24.5347 71.7342C23.4796 70.6269 22.227 69.7485 20.8484 69.1492C19.4699 68.5499 17.9923 68.2415 16.5002 68.2415C15.0081 68.2415 13.5305 68.5499 12.152 69.1492C10.7734 69.7485 9.5208 70.6269 8.46569 71.7342C7.41059 72.8415 6.57363 74.1561 6.00261 75.603C5.43159 77.0498 5.1377 78.6004 5.1377 80.1665V80.1665Z" fill="#019AEB"/>
<path d="M16.4998 69.2541C22.5186 69.2541 27.4123 74.1478 27.4123 80.1666C27.4123 86.1853 22.5186 91.0791 16.4998 91.0791C10.4811 91.0791 5.5873 86.1853 5.5873 80.1666C5.5873 74.1478 10.4811 69.2541 16.4998 69.2541ZM16.4998 67.3416C9.4123 67.3416 3.6748 73.0791 3.6748 80.1666C3.6748 87.2541 9.4123 92.9916 16.4998 92.9916C23.5873 92.9916 29.3248 87.2541 29.3248 80.1666C29.3248 73.0791 23.5873 67.3416 16.4998 67.3416Z" fill="#0E416C"/>
<path d="M17.7373 83.9352H18.6373V85.6227H14.3623V83.9352H15.6561V79.9977H14.3623V78.254H17.7373V83.9352V83.9352ZM15.5436 77.1852H17.7373V74.7102H15.5436V77.1852Z" fill="white"/>
<path d="M51.083 88.6665H49.2568V81.2759H40.9854V88.6665H39.1592V72.9614H40.9854V79.6431H49.2568V72.9614H51.083V88.6665ZM60.3564 88.8813C58.6162 88.8813 57.2412 88.3514 56.2314 87.2915C55.2288 86.2316 54.7275 84.7599 54.7275 82.8765C54.7275 80.9787 55.193 79.4712 56.124 78.354C57.0622 77.2368 58.319 76.6782 59.8945 76.6782C61.3698 76.6782 62.5371 77.1652 63.3965 78.1392C64.2559 79.106 64.6855 80.3843 64.6855 81.9741V83.1021H56.5752C56.611 84.4842 56.9583 85.5334 57.6172 86.2495C58.2832 86.9657 59.2178 87.3237 60.4209 87.3237C61.6885 87.3237 62.9417 87.0588 64.1807 86.5288V88.1187C63.5505 88.3908 62.9525 88.5841 62.3867 88.6987C61.8281 88.8205 61.1514 88.8813 60.3564 88.8813ZM59.873 78.1714C58.9277 78.1714 58.1722 78.4793 57.6064 79.0952C57.0479 79.7111 56.7184 80.5633 56.6182 81.6519H62.7734C62.7734 80.5275 62.5228 79.6681 62.0215 79.0737C61.5202 78.4722 60.804 78.1714 59.873 78.1714ZM69.7695 88.6665H67.9863V71.9517H69.7695V88.6665ZM79.2793 88.8813C78.513 88.8813 77.8112 88.7417 77.1738 88.4624C76.5436 88.1759 76.0137 87.7391 75.584 87.1519H75.4551C75.541 87.8394 75.584 88.491 75.584 89.1069V93.9517H73.8008V76.8931H75.251L75.498 78.5044H75.584C76.0423 77.8599 76.5758 77.3944 77.1846 77.1079C77.7933 76.8215 78.4915 76.6782 79.2793 76.6782C80.8405 76.6782 82.0436 77.2118 82.8887 78.2788C83.7409 79.3459 84.167 80.8426 84.167 82.769C84.167 84.7026 83.7337 86.2065 82.8672 87.2808C82.0078 88.3478 80.8118 88.8813 79.2793 88.8813ZM79.0215 78.1929C77.8184 78.1929 76.9482 78.5259 76.4111 79.1919C75.874 79.8579 75.5983 80.9178 75.584 82.3716V82.769C75.584 84.4233 75.8597 85.6086 76.4111 86.3247C76.9626 87.0337 77.847 87.3882 79.0645 87.3882C80.0814 87.3882 80.8763 86.9764 81.4492 86.1528C82.0293 85.3293 82.3193 84.1942 82.3193 82.7476C82.3193 81.2795 82.0293 80.1551 81.4492 79.3745C80.8763 78.5868 80.0671 78.1929 79.0215 78.1929ZM92.5166 88.8813C90.7764 88.8813 89.4014 88.3514 88.3916 87.2915C87.389 86.2316 86.8877 84.7599 86.8877 82.8765C86.8877 80.9787 87.3532 79.4712 88.2842 78.354C89.2223 77.2368 90.4792 76.6782 92.0547 76.6782C93.5299 76.6782 94.6973 77.1652 95.5566 78.1392C96.416 79.106 96.8457 80.3843 96.8457 81.9741V83.1021H88.7354C88.7712 84.4842 89.1185 85.5334 89.7773 86.2495C90.4434 86.9657 91.3779 87.3237 92.5811 87.3237C93.8486 87.3237 95.1019 87.0588 96.3408 86.5288V88.1187C95.7106 88.3908 95.1126 88.5841 94.5469 88.6987C93.9883 88.8205 93.3115 88.8813 92.5166 88.8813ZM92.0332 78.1714C91.0879 78.1714 90.3324 78.4793 89.7666 79.0952C89.208 79.7111 88.8786 80.5633 88.7783 81.6519H94.9336C94.9336 80.5275 94.6829 79.6681 94.1816 79.0737C93.6803 78.4722 92.9642 78.1714 92.0332 78.1714ZM105.518 76.6782C106.04 76.6782 106.509 76.7212 106.925 76.8071L106.678 78.4614C106.191 78.354 105.761 78.3003 105.389 78.3003C104.436 78.3003 103.62 78.687 102.939 79.4604C102.266 80.2339 101.93 81.1971 101.93 82.3501V88.6665H100.146V76.8931H101.618L101.822 79.0737H101.908C102.345 78.3075 102.871 77.7166 103.487 77.3013C104.103 76.8859 104.78 76.6782 105.518 76.6782ZM120.444 88.6665H118.618V74.5835H113.645V72.9614H125.418V74.5835H120.444V88.6665ZM132.747 88.8813C131.007 88.8813 129.632 88.3514 128.622 87.2915C127.619 86.2316 127.118 84.7599 127.118 82.8765C127.118 80.9787 127.584 79.4712 128.515 78.354C129.453 77.2368 130.71 76.6782 132.285 76.6782C133.76 76.6782 134.928 77.1652 135.787 78.1392C136.646 79.106 137.076 80.3843 137.076 81.9741V83.1021H128.966C129.002 84.4842 129.349 85.5334 130.008 86.2495C130.674 86.9657 131.608 87.3237 132.812 87.3237C134.079 87.3237 135.332 87.0588 136.571 86.5288V88.1187C135.941 88.3908 135.343 88.5841 134.777 88.6987C134.219 88.8205 133.542 88.8813 132.747 88.8813ZM132.264 78.1714C131.318 78.1714 130.563 78.4793 129.997 79.0952C129.438 79.7111 129.109 80.5633 129.009 81.6519H135.164C135.164 80.5275 134.913 79.6681 134.412 79.0737C133.911 78.4722 133.195 78.1714 132.264 78.1714ZM143.213 82.6401L139.12 76.8931H141.15L144.255 81.4048L147.349 76.8931H149.357L145.265 82.6401L149.572 88.6665H147.553L144.255 83.897L140.925 88.6665H138.905L143.213 82.6401ZM155.967 87.4097C156.282 87.4097 156.586 87.3882 156.88 87.3452C157.174 87.2951 157.406 87.245 157.578 87.1948V88.5591C157.385 88.6522 157.098 88.7274 156.719 88.7847C156.346 88.8491 156.01 88.8813 155.709 88.8813C153.432 88.8813 152.293 87.6818 152.293 85.2827V78.2788H150.606V77.4194L152.293 76.6782L153.045 74.1646H154.076V76.8931H157.492V78.2788H154.076V85.2075C154.076 85.9165 154.244 86.4608 154.581 86.8403C154.918 87.2199 155.38 87.4097 155.967 87.4097Z" fill="white"/>
</svg>

<svg width="468" height="95" fill="none" xmlns="http://www.w3.org/2000/svg"><rect x="1" y="1.667" width="466" height="54" rx="3" fill="#000"/><path d="M22.972 37.666h-1.837V23.573h-4.942V21.96h11.699v1.612h-4.92v14.093zM34.78 25.678c1.003 0 1.862.222 2.578.666.717.444 1.264 1.067 1.644 1.87.38.794.57 1.725.57 2.792v1.107h-8.133c.022 1.382.366 2.435 1.032 3.158.666.723 1.604 1.085 2.814 1.085.745 0 1.404-.068 1.977-.204a10.9 10.9 0 001.783-.602v1.569a8.682 8.682 0 01-1.773.58c-.58.122-1.267.182-2.062.182-1.132 0-2.12-.229-2.965-.687-.838-.466-1.49-1.146-1.955-2.041-.465-.895-.698-1.991-.698-3.287 0-1.268.211-2.364.634-3.287.43-.931 1.03-1.648 1.804-2.149.78-.501 1.697-.752 2.75-.752zm-.021 1.461c-.953 0-1.712.312-2.278.935-.565.623-.902 1.493-1.01 2.61h6.231c-.007-.702-.118-1.318-.333-1.848-.208-.537-.526-.952-.956-1.246-.43-.3-.981-.45-1.654-.45zm10.895 4.501l-4.071-5.747h2.041l3.104 4.533 3.094-4.533h2.02L47.77 31.64l4.297 6.026h-2.04l-3.299-4.801-3.319 4.801h-2.02l4.265-6.026zm12.765 4.78c.294 0 .594-.025.902-.075.308-.05.559-.11.752-.182v1.385c-.207.093-.498.172-.87.237a6.179 6.179 0 01-1.074.096 4.32 4.32 0 01-1.697-.322c-.509-.222-.917-.594-1.225-1.117-.3-.523-.451-1.246-.451-2.17V27.29H53.08v-.87l1.687-.699.709-2.556h1.074v2.728h3.448v1.397H56.55v6.928c0 .738.168 1.29.505 1.655.343.365.798.547 1.364.547zm10.522 1.246V21.962h1.827v15.706H68.94zm11.702-11.988c1.396 0 2.452.344 3.168 1.031.717.68 1.075 1.776 1.075 3.288v7.67h-1.762v-7.552c0-.981-.226-1.715-.677-2.202-.444-.487-1.128-.73-2.052-.73-1.303 0-2.22.368-2.75 1.106-.53.737-.794 1.808-.794 3.211v6.166h-1.784V25.893h1.44l.268 1.697h.097c.25-.415.57-.762.956-1.042.387-.286.82-.501 1.3-.644.48-.15.985-.226 1.515-.226zm13.699 0c1.468 0 2.639.505 3.513 1.515.873 1.01 1.31 2.528 1.31 4.555 0 1.339-.2 2.463-.602 3.373-.4.91-.966 1.597-1.697 2.062-.723.466-1.579.698-2.567.698-.623 0-1.171-.082-1.644-.247a3.878 3.878 0 01-1.214-.666 4.347 4.347 0 01-.838-.913h-.128l.075 1.01c.036.394.053.738.053 1.031v4.834H88.81V25.893h1.471l.237 1.74h.085c.23-.358.509-.684.838-.977.33-.301.73-.537 1.203-.71.48-.178 1.046-.268 1.698-.268zm-.312 1.504c-.816 0-1.475.158-1.976.473-.494.315-.856.787-1.085 1.418-.23.623-.351 1.407-.365 2.352v.344c0 .995.107 1.837.322 2.525.222.687.583 1.21 1.085 1.568.508.358 1.189.537 2.04.537.731 0 1.34-.197 1.827-.59.487-.395.849-.943 1.085-1.644.243-.71.365-1.522.365-2.439 0-1.39-.272-2.492-.816-3.308-.537-.824-1.365-1.236-2.482-1.236zm18.222-1.289v11.773h-1.461l-.258-1.654h-.096a3.427 3.427 0 01-.946 1.032c-.387.279-.823.486-1.31.623-.48.143-.992.214-1.536.214-.931 0-1.712-.15-2.342-.45a3.036 3.036 0 01-1.429-1.397c-.315-.63-.473-1.44-.473-2.428v-7.713h1.805v7.584c0 .981.222 1.715.666 2.202.444.48 1.121.72 2.03.72.874 0 1.569-.165 2.084-.494.523-.33.899-.813 1.128-1.45.229-.645.344-1.433.344-2.364v-6.198h1.794zm7.823 10.527c.294 0 .595-.025.903-.075.307-.05.558-.11.751-.182v1.385c-.207.093-.497.172-.87.237a6.174 6.174 0 01-1.074.096 4.317 4.317 0 01-1.697-.322c-.509-.222-.917-.594-1.225-1.117-.301-.523-.451-1.246-.451-2.17V27.29h-1.676v-.87l1.687-.699.709-2.556h1.074v2.728h3.448v1.397h-3.448v6.928c0 .738.168 1.29.505 1.655.344.365.798.547 1.364.547z" fill="#fff"/><rect x="1" y="1.667" width="466" height="54" rx="3" stroke="#353A40" stroke-width="2"/><path d="M5.138 80.166c0 1.567.294 3.117.865 4.564a11.98 11.98 0 002.463 3.869 11.343 11.343 0 003.686 2.585c1.379.599 2.856.907 4.348.907s2.97-.308 4.348-.907a11.343 11.343 0 003.687-2.585 11.98 11.98 0 002.463-3.869 12.44 12.44 0 00.865-4.564 12.44 12.44 0 00-.865-4.563 11.98 11.98 0 00-2.463-3.869 11.343 11.343 0 00-3.687-2.585 10.898 10.898 0 00-4.348-.907c-1.492 0-2.97.308-4.348.907a11.343 11.343 0 00-3.686 2.585 11.98 11.98 0 00-2.463 3.869 12.439 12.439 0 00-.865 4.564z" fill="#019AEB"/><path d="M16.5 69.254c6.019 0 10.912 4.894 10.912 10.913 0 6.018-4.893 10.912-10.912 10.912-6.019 0-10.913-4.894-10.913-10.912 0-6.02 4.894-10.913 10.913-10.913zm0-1.912c-7.088 0-12.825 5.737-12.825 12.825 0 7.087 5.737 12.825 12.825 12.825 7.087 0 12.825-5.738 12.825-12.825 0-7.088-5.738-12.825-12.825-12.825z" fill="#0E416C"/><path d="M17.737 83.935h.9v1.688h-4.275v-1.688h1.294v-3.937h-1.294v-1.744h3.375v5.681zm-2.193-6.75h2.193V74.71h-2.193v2.475zM51.083 88.666h-1.826v-7.39h-8.272v7.39H39.16V72.962h1.826v6.682h8.272v-6.682h1.826v15.706zm9.273.215c-1.74 0-3.115-.53-4.125-1.59-1.002-1.06-1.504-2.531-1.504-4.415 0-1.897.466-3.405 1.397-4.522.938-1.117 2.195-1.676 3.77-1.676 1.476 0 2.643.487 3.503 1.461.859.967 1.289 2.245 1.289 3.835v1.128h-8.11c.035 1.382.382 2.431 1.041 3.147.666.717 1.6 1.075 2.804 1.075 1.267 0 2.52-.265 3.76-.795v1.59a9.118 9.118 0 01-1.794.58c-.559.121-1.236.182-2.03.182zm-.483-10.71c-.945 0-1.7.308-2.267.924-.558.616-.888 1.468-.988 2.557h6.155c0-1.124-.25-1.984-.752-2.578-.5-.602-1.217-.903-2.148-.903zm9.896 10.495h-1.783V71.953h1.783v16.715zm9.51.215a5.19 5.19 0 01-2.105-.419 4.002 4.002 0 01-1.59-1.31h-.129c.086.687.129 1.339.129 1.955v4.845h-1.783V76.893h1.45l.247 1.611h.086c.458-.644.992-1.11 1.6-1.396.61-.287 1.308-.43 2.095-.43 1.562 0 2.765.534 3.61 1.6.852 1.068 1.278 2.565 1.278 4.491 0 1.934-.433 3.438-1.3 4.512-.86 1.067-2.055 1.6-3.588 1.6zm-.257-10.688c-1.204 0-2.074.333-2.61.999-.538.666-.814 1.726-.828 3.18v.397c0 1.654.276 2.84.827 3.556.552.709 1.436 1.063 2.653 1.063 1.017 0 1.812-.412 2.385-1.235.58-.824.87-1.959.87-3.405 0-1.469-.29-2.593-.87-3.374-.573-.787-1.382-1.181-2.427-1.181zM92.517 88.88c-1.74 0-3.116-.53-4.125-1.59-1.003-1.06-1.504-2.531-1.504-4.415 0-1.897.465-3.405 1.396-4.522.938-1.117 2.195-1.676 3.77-1.676 1.476 0 2.643.487 3.503 1.461.859.967 1.289 2.245 1.289 3.835v1.128h-8.11c.035 1.382.382 2.431 1.041 3.147.666.717 1.6 1.075 2.804 1.075 1.268 0 2.52-.265 3.76-.795v1.59a9.12 9.12 0 01-1.794.58c-.559.121-1.236.182-2.03.182zm-.484-10.71c-.945 0-1.7.308-2.266.924-.559.616-.888 1.468-.989 2.557h6.156c0-1.124-.251-1.984-.752-2.578-.502-.602-1.218-.903-2.149-.903zm13.485-1.493c.522 0 .991.043 1.407.13l-.247 1.653a6.078 6.078 0 00-1.289-.16c-.953 0-1.769.386-2.45 1.16-.673.773-1.009 1.736-1.009 2.89v6.316h-1.784V76.892h1.472l.204 2.18h.086c.437-.765.963-1.356 1.579-1.772a3.556 3.556 0 012.031-.623zm14.926 11.989h-1.826V74.582h-4.973v-1.622h11.773v1.623h-4.974v14.082zm12.303.214c-1.74 0-3.115-.53-4.125-1.59-1.003-1.06-1.504-2.531-1.504-4.415 0-1.897.466-3.405 1.397-4.522.938-1.117 2.195-1.676 3.77-1.676 1.475 0 2.643.487 3.502 1.461.859.967 1.289 2.245 1.289 3.835v1.128h-8.11c.036 1.382.383 2.431 1.042 3.147.666.717 1.6 1.075 2.804 1.075 1.267 0 2.52-.265 3.759-.795v1.59a9.11 9.11 0 01-1.794.58c-.558.121-1.235.182-2.03.182zm-.483-10.71c-.946 0-1.701.308-2.267.924-.559.616-.888 1.468-.988 2.557h6.155c0-1.124-.251-1.984-.752-2.578-.501-.602-1.217-.903-2.148-.903zm10.949 4.47l-4.093-5.748h2.03l3.105 4.512 3.094-4.512h2.008l-4.092 5.747 4.307 6.026h-2.019l-3.298-4.769-3.33 4.77h-2.02l4.308-6.027zm12.754 4.769a6.3 6.3 0 00.913-.065c.294-.05.526-.1.698-.15v1.364c-.193.093-.48.168-.859.226a5.985 5.985 0 01-1.01.096c-2.277 0-3.416-1.2-3.416-3.598v-7.004h-1.687v-.86l1.687-.74.752-2.514h1.031v2.728h3.416v1.386h-3.416v6.928c0 .71.168 1.254.505 1.633.337.38.799.57 1.386.57z" fill="#fff"/></svg>
